X: 8029
T: Connemara, The
R: reel
M: 4/4
K: Dmajor
|:FBBB GBBc|BAFD EAcA|FBBB GBBG|FBdc cBB2:|
|:f2fe dcBd|(3cBA eA fAeA|Bcde fgfe|dcBA FBB2|
f2fe dcBd|(3cBA eA fAeA|Bcde f2fe|dcBA FBB2:|

